static/assets/images/networks/blast.svg

<svg width="256" height="256" viewBox="0 0 256 256" fill="none" xmlns="http://www.w3.org/2000/svg">
<path d="M128 256C198.692 256 256 198.692 256 128C256 57.3075 198.692 0 128 0C57.3075 0 0 57.3075 0 128C0 198.692 57.3075 256 128 256Z" fill="#FCFC03"/>
<path d="M179.254 129.197L207.324 115.228L217 85.5656L197.648 71.5H68.7944L39 93.603H190.463L182.416 118.481H121.677L115.833 136.661H176.572L159.519 189L187.972 174.934L198.127 143.55L179.062 129.58L179.254 129.197Z" fill="black"/>
<path d="M81.8235 166.514L99.3552 111.974L79.9074 97.4304L50.6878 189H159.519L166.8 166.514H81.8235Z" fill="black"/>
</svg>

<svg xmlns="http://www.w3.org/2000/svg" fill="none" viewBox="0 0 256 256"><path fill="#FCFC03" d="M128 256c70.692 0 128-57.308 128-128S198.692 0 128 0 0 57.308 0 128s57.308 128 128 128"/><path fill="#000" d="m179.254 129.197 28.07-13.969L217 85.566 197.648 71.5H68.794L39 93.603h151.463l-8.047 24.878h-60.739l-5.844 18.18h60.739L159.519 189l28.453-14.066 10.155-31.384-19.065-13.97z"/><path fill="#000" d="m81.824 166.514 17.531-54.54L79.907 97.43 50.687 189H159.52l7.281-22.486z"/></svg>
